X:2
T:Satin Doll
C:Duke Ellington
L:1/8
M:C
I:linebreak $
K:C
"Dm" AG A2"G7" G A3 |"Dm" z2 A2"G7" G A3 ||[K:D]"Em" BA B2"A7" A B3 |"Em" z2 B2"A7" A B3 ||$
[K:G]"Am" z2 d2"D7" c d3 ||[K:Gb]"Abm" z2 B2"Db7" A B3 ||[K:C]"C6" G8 || "_Fine" z8 :|$
[K:F]"Gm" cB A"C7" G2 A B2 |"Gm" cB A G2"C7" A B2 |"F" c8 | z8 ||$[K:G]"Am" dc B"D7" A2 B c2 |
"Am" dc B A2"D7" B c2 |"G" d8 ||[K:C]"Dm" z8"G7" "_D.C. al Fine" x4 ||

